X:18
T:Polska ur Petter Dufvas notbok (Ma6-18)
R:Polska
O:Verkelbäck, Småland
B:Petter Dufvas notbok
S:Petter Dufva
N:Smus Ma6 bild 20
N:Första reprisens slut är ändrad till ett halvslut, så att första reprisen har 4+4 takter, i enlighet med kommentar till låten i M Gustafsson, Polskans Historia.
M:3/4
L:1/8
K:G
G/A/B/A/ GD B,G,|G/A/B/A/ GD B,G,|G/A/B/c/ d2 B2|1 ce/c/ A2 D2:|2CC B,B, G,2||
|:df ef gB|ce A2 c2|Bd E2 F2|GA/G/ F2 D2|d2 ef gB|AG/F/ G2 G,2:|

